cached_logos/dovetail.svg

<svg xmlns="http://www.w3.org/2000/svg" role="img" xmlns:xlink="http://www.w3.org/1999/xlink" viewBox="0.34 2.84 216.32 51.82"><title>Dovetail logo</title><defs><g id="glyph-0-0"><path d="M 4.628906 0 L 4.628906 -42.949219 L 19.421875 -42.949219 C 22.761719 -42.949219 25.3125 -42.742188 27.070312 -42.335938 C 29.53125 -41.769531 31.632812 -40.742188 33.367188 -39.257812 C 35.632812 -37.34375 37.328125 -34.898438 38.453125 -31.917969 C 39.574219 -28.941406 40.136719 -25.539062 40.136719 -21.710938 C 40.136719 -18.449219 39.757812 -15.554688 38.992188 -13.039062 C 38.230469 -10.519531 37.257812 -8.433594 36.0625 -6.78125 C 34.871094 -5.132812 33.570312 -3.832031 32.152344 -2.886719 C 30.738281 -1.9375 29.027344 -1.21875 27.027344 -0.734375 C 25.023438 -0.246094 22.726562 0 20.125 0 Z M 10.3125 -5.070312 L 19.484375 -5.070312 C 22.316406 -5.070312 24.535156 -5.332031 26.148438 -5.859375 C 27.757812 -6.386719 29.042969 -7.128906 30 -8.085938 C 31.347656 -9.433594 32.398438 -11.246094 33.148438 -13.519531 C 33.902344 -15.796875 34.277344 -18.554688 34.277344 -21.796875 C 34.277344 -26.289062 33.539062 -29.742188 32.066406 -32.152344 C 30.589844 -34.566406 28.796875 -36.179688 26.6875 -37 C 25.164062 -37.585938 22.714844 -37.882812 19.335938 -37.882812 L 10.3125 -37.882812 Z M 10.3125 -5.070312"/></g><g id="glyph-0-1"><path d="M 1.992188 -15.554688 C 1.992188 -21.316406 3.59375 -25.585938 6.796875 -28.359375 C 9.472656 -30.664062 12.734375 -31.816406 16.582031 -31.816406 C 20.859375 -31.816406 24.355469 -30.414062 27.070312 -27.613281 C 29.785156 -24.808594 31.140625 -20.9375 31.140625 -15.996094 C 31.140625 -11.992188 30.542969 -8.84375 29.339844 -6.546875 C 28.140625 -4.253906 26.390625 -2.46875 24.097656 -1.203125 C 21.800781 0.0664062 19.296875 0.703125 16.582031 0.703125 C 12.226562 0.703125 8.707031 -0.695312 6.019531 -3.484375 C 3.335938 -6.277344 1.992188 -10.304688 1.992188 -15.554688 Z M 7.414062 -15.554688 C 7.414062 -11.570312 8.28125 -8.589844 10.019531 -6.605469 C 11.757812 -4.625 13.945312 -3.632812 16.582031 -3.632812 C 19.199219 -3.632812 21.375 -4.628906 23.117188 -6.621094 C 24.855469 -8.613281 25.722656 -11.648438 25.722656 -15.734375 C 25.722656 -19.582031 24.847656 -22.496094 23.101562 -24.476562 C 21.351562 -26.460938 19.179688 -27.453125 16.582031 -27.453125 C 13.945312 -27.453125 11.757812 -26.464844 10.019531 -24.492188 C 8.28125 -22.519531 7.414062 -19.539062 7.414062 -15.554688 Z M 7.414062 -15.554688"/></g><g id="glyph-0-2"><path d="M 12.597656 0 L 0.761719 -31.113281 L 6.328125 -31.113281 L 13.007812 -12.480469 C 13.730469 -10.46875 14.394531 -8.378906 15 -6.210938 C 15.46875 -7.851562 16.125 -9.824219 16.960938 -12.128906 L 23.875 -31.113281 L 29.296875 -31.113281 L 17.519531 0 Z M 12.597656 0"/></g><g id="glyph-0-3"><path d="M 25.253906 -10.019531 L 30.703125 -9.34375 C 29.84375 -6.160156 28.25 -3.691406 25.929688 -1.933594 C 23.605469 -0.175781 20.632812 0.703125 17.023438 0.703125 C 12.472656 0.703125 8.863281 -0.699219 6.195312 -3.5 C 3.53125 -6.304688 2.195312 -10.234375 2.195312 -15.292969 C 2.195312 -20.527344 3.546875 -24.589844 6.242188 -27.480469 C 8.9375 -30.371094 12.429688 -31.816406 16.726562 -31.816406 C 20.886719 -31.816406 24.289062 -30.398438 26.921875 -27.570312 C 29.558594 -24.738281 30.878906 -20.75 30.878906 -15.617188 C 30.878906 -15.304688 30.867188 -14.835938 30.851562 -14.210938 L 7.648438 -14.210938 C 7.84375 -10.792969 8.808594 -8.171875 10.546875 -6.359375 C 12.285156 -4.542969 14.453125 -3.632812 17.050781 -3.632812 C 18.984375 -3.632812 20.632812 -4.140625 22 -5.15625 C 23.367188 -6.171875 24.453125 -7.792969 25.253906 -10.019531 Z M 7.9375 -18.546875 L 25.3125 -18.546875 C 25.078125 -21.164062 24.414062 -23.125 23.320312 -24.433594 C 21.640625 -26.464844 19.460938 -27.480469 16.789062 -27.480469 C 14.367188 -27.480469 12.328125 -26.671875 10.679688 -25.046875 C 9.027344 -23.425781 8.117188 -21.257812 7.9375 -18.546875 Z M 7.9375 -18.546875"/></g><g id="glyph-0-4"><path d="M 15.46875 -4.71875 L 16.230469 -0.0585938 C 14.746094 0.253906 13.417969 0.410156 12.246094 0.410156 C 10.332031 0.410156 8.847656 0.109375 7.792969 -0.5 C 6.738281 -1.105469 5.996094 -1.898438 5.566406 -2.886719 C 5.136719 -3.871094 4.921875 -5.945312 4.921875 -9.109375 L 4.921875 -27.011719 L 1.054688 -27.011719 L 1.054688 -31.113281 L 4.921875 -31.113281 L 4.921875 -38.820312 L 10.164062 -41.984375 L 10.164062 -31.113281 L 15.46875 -31.113281 L 15.46875 -27.011719 L 10.164062 -27.011719 L 10.164062 -8.820312 C 10.164062 -7.316406 10.257812 -6.347656 10.445312 -5.917969 C 10.628906 -5.488281 10.933594 -5.148438 11.351562 -4.890625 C 11.773438 -4.636719 12.375 -4.511719 13.15625 -4.511719 C 13.742188 -4.511719 14.511719 -4.578125 15.46875 -4.71875 Z M 15.46875 -4.71875"/></g><g id="glyph-0-5"><path d="M 24.257812 -3.835938 C 22.304688 -2.175781 20.425781 -1.007812 18.617188 -0.320312 C 16.8125 0.363281 14.875 0.703125 12.804688 0.703125 C 9.386719 0.703125 6.757812 -0.132812 4.921875 -1.800781 C 3.085938 -3.472656 2.167969 -5.605469 2.167969 -8.203125 C 2.167969 -9.726562 2.515625 -11.117188 3.207031 -12.378906 C 3.902344 -13.636719 4.808594 -14.648438 5.933594 -15.410156 C 7.054688 -16.171875 8.320312 -16.75 9.726562 -17.140625 C 10.761719 -17.414062 12.324219 -17.675781 14.414062 -17.929688 C 18.671875 -18.4375 21.804688 -19.042969 23.820312 -19.746094 C 23.839844 -20.46875 23.847656 -20.929688 23.847656 -21.125 C 23.847656 -23.273438 23.351562 -24.785156 22.351562 -25.664062 C 21.003906 -26.855469 19.003906 -27.453125 16.347656 -27.453125 C 13.867188 -27.453125 12.035156 -27.015625 10.855469 -26.148438 C 9.671875 -25.277344 8.796875 -23.742188 8.234375 -21.53125 L 3.078125 -22.234375 C 3.546875 -24.441406 4.316406 -26.226562 5.390625 -27.582031 C 6.464844 -28.941406 8.015625 -29.984375 10.046875 -30.71875 C 12.078125 -31.449219 14.433594 -31.816406 17.109375 -31.816406 C 19.765625 -31.816406 21.921875 -31.503906 23.585938 -30.878906 C 25.246094 -30.253906 26.464844 -29.46875 27.246094 -28.519531 C 28.027344 -27.574219 28.574219 -26.375 28.886719 -24.929688 C 29.0625 -24.03125 29.148438 -22.414062 29.148438 -20.070312 L 29.148438 -13.039062 C 29.148438 -8.136719 29.261719 -5.035156 29.488281 -3.734375 C 29.710938 -2.4375 30.15625 -1.191406 30.820312 0 L 25.3125 0 C 24.765625 -1.09375 24.414062 -2.375 24.257812 -3.835938 Z M 23.820312 -15.617188 C 21.90625 -14.835938 19.03125 -14.171875 15.203125 -13.625 C 13.035156 -13.3125 11.503906 -12.960938 10.605469 -12.570312 C 9.707031 -12.179688 9.015625 -11.605469 8.523438 -10.855469 C 8.035156 -10.101562 7.792969 -9.265625 7.792969 -8.351562 C 7.792969 -6.945312 8.324219 -5.773438 9.390625 -4.835938 C 10.453125 -3.898438 12.011719 -3.429688 14.0625 -3.429688 C 16.09375 -3.429688 17.898438 -3.871094 19.484375 -4.761719 C 21.066406 -5.648438 22.226562 -6.867188 22.96875 -8.40625 C 23.535156 -9.597656 23.820312 -11.359375 23.820312 -13.679688 Z M 23.820312 -15.617188"/></g><g id="glyph-0-6"><path d="M 3.984375 -36.882812 L 3.984375 -42.949219 L 9.257812 -42.949219 L 9.257812 -36.882812 Z M 3.984375 0 L 3.984375 -31.113281 L 9.257812 -31.113281 L 9.257812 0 Z M 3.984375 0"/></g><g id="glyph-0-7"><path d="M 3.835938 0 L 3.835938 -42.949219 L 9.109375 -42.949219 L 9.109375 0 Z M 3.835938 0"/></g></defs><g><use y="50" xlink:href="#glyph-0-0"/><use x="43.33" y="50" xlink:href="#glyph-0-1"/><use x="76.699" y="50" xlink:href="#glyph-0-2"/><use x="106.699" y="50" xlink:href="#glyph-0-3"/><use x="140.068" y="50" xlink:href="#glyph-0-4"/><use x="156.738" y="50" xlink:href="#glyph-0-5"/><use x="190.107" y="50" xlink:href="#glyph-0-6"/><use x="203.438" y="50" xlink:href="#glyph-0-7"/></g></svg>

<svg xmlns="http://www.w3.org/2000/svg" role="img" xmlns:xlink="http://www.w3.org/1999/xlink" viewBox="0.34 2.84 216.32 51.82"><title>Dovetail logo</title><defs><path d="M4.6289 0v-42.94922h14.79297c3.33985 0 5.89063.20703 7.64844.61328 2.46094.5664 4.5625 1.59375 6.29688 3.07813 2.26562 1.91406 3.96093 4.35937 5.08593 7.33984 1.1211 2.97656 1.6836 6.3789 1.6836 10.20703 0 3.26172-.3789 6.15625-1.14453 8.67188-.76172 2.51953-1.73438 4.60547-2.92969 6.25781-1.1914 1.64844-2.49219 2.94922-3.91016 3.89453-1.41406.94922-3.125 1.66797-5.125 2.15234C25.02344-.24608 22.72656 0 20.125 0zm5.6836-5.07031h9.17188c2.83203 0 5.05078-.26172 6.66406-.78906C27.7578-6.38673 29.04297-7.12892 30-8.08595c1.34766-1.34765 2.39844-3.16015 3.14844-5.4336.7539-2.27734 1.1289-5.03515 1.1289-8.27734 0-4.49218-.73828-7.9453-2.21093-10.35546C30.58984-34.56641 28.79688-36.1797 26.6875-37c-1.52344-.58594-3.97266-.88281-7.35156-.88281H10.3125zm0 0" id="a"/><path d="M1.99219-15.55469c0-5.76172 1.60156-10.03125 4.80468-12.80468 2.67579-2.3047 5.9375-3.45704 9.78516-3.45704 4.27735 0 7.77344 1.40235 10.48828 4.20313 2.71485 2.80469 4.07032 6.67578 4.07032 11.61719 0 4.0039-.59766 7.15234-1.80079 9.44922-1.19921 2.29296-2.94921 4.07812-5.24218 5.34375C21.80078.0664 19.29687.70311 16.58203.70311c-4.35547 0-7.875-1.39843-10.5625-4.1875-2.6836-2.79296-4.02734-6.8203-4.02734-12.0703zm5.42187 0c0 3.98438.86719 6.96485 2.60547 8.94922 1.73828 1.98047 3.92578 2.97266 6.5625 2.97266 2.61719 0 4.79297-.9961 6.53516-2.98828 1.73828-1.9922 2.60547-5.02735 2.60547-9.11329 0-3.84765-.875-6.76171-2.6211-8.74218-1.75-1.98438-3.92187-2.97657-6.51953-2.97657-2.63672 0-4.82422.98829-6.5625 2.96094-1.73828 1.97266-2.60547 4.95313-2.60547 8.9375zm0 0" id="b"/><path d="M12.59766 0L.76172-31.11328h5.5664l6.6797 18.63281C13.73046-10.46875 14.39452-8.3789 15-6.21094c.46875-1.64062 1.125-3.61328 1.96094-5.91797L23.875-31.11328h5.42188L17.51953 0zm0 0" id="c"/><path d="M25.2539-10.01953l5.44922.67578c-.85937 3.1836-2.45312 5.65234-4.77343 7.41016C23.60547-.1758 20.6328.70312 17.02344.70312 12.47266.70313 8.86328-.69921 6.1953-3.5c-2.66406-2.80469-4-6.73438-4-11.79297 0-5.23437 1.35156-9.29687 4.04688-12.1875 2.69531-2.89062 6.1875-4.33594 10.48437-4.33594 4.16016 0 7.5625 1.41797 10.19532 4.2461C29.55859-24.73828 30.8789-20.75 30.8789-15.6172c0 .3125-.01172.78125-.02735 1.40625H7.64844c.19531 3.41797 1.16015 6.03907 2.89844 7.85157 1.73828 1.8164 3.90625 2.72656 6.5039 2.72656 1.9336 0 3.58203-.50781 4.94922-1.52344 1.36719-1.01563 2.45313-2.63672 3.2539-4.86328zM7.9375-18.54688h17.375c-.23438-2.61718-.89844-4.57812-1.99219-5.88671-1.67968-2.03125-3.85937-3.04688-6.53125-3.04688-2.42187 0-4.46093.8086-6.10937 2.4336-1.65235 1.62109-2.5625 3.78906-2.74219 6.5zm0 0" id="d"/><path d="M15.46875-4.71875l.76172 4.66016c-1.48438.3125-2.8125.46875-3.98438.46875-1.91406 0-3.39843-.30079-4.45312-.91016-1.05469-.60547-1.79688-1.39844-2.22656-2.38672-.4297-.98437-.64454-3.0586-.64454-6.22266v-17.90234H1.0547v-4.10156h3.86719v-7.70703l5.24218-3.16407v10.8711h5.30469v4.10156h-5.30469v18.1914c0 1.50391.09375 2.47266.28125 2.90235.1836.42969.48828.76953.90625 1.02735.42188.2539 1.02344.3789 1.80469.3789.58594 0 1.35547-.0664 2.3125-.20703zm0 0" id="e"/><path d="M24.25781-3.83594C22.3047-2.17578 20.42578-1.0078 18.6172-.3203 16.8125.36329 14.875.70313 12.80469.70313c-3.41797 0-6.04688-.83594-7.88282-2.50391-1.83593-1.67188-2.7539-3.80469-2.7539-6.40235 0-1.52343.34766-2.91406 1.03906-4.17578.69531-1.2578 1.60156-2.26953 2.72656-3.03125 1.1211-.76172 2.38672-1.33984 3.79297-1.73047 1.03516-.27343 2.59766-.53515 4.6875-.78906 4.25782-.50781 7.39063-1.11328 9.40625-1.8164.01953-.72266.02735-1.1836.02735-1.37891 0-2.14844-.4961-3.66016-1.4961-4.53906-1.34765-1.1914-3.34765-1.78907-6.0039-1.78907-2.48047 0-4.3125.4375-5.4922 1.3047-1.18359.87109-2.05859 2.40624-2.62109 4.61718l-5.15625-.70313c.46875-2.20703 1.23829-3.99218 2.3125-5.34765 1.07422-1.35938 2.625-2.40235 4.65625-3.13672 2.03125-.73047 4.38672-1.09766 7.0625-1.09766 2.65626 0 4.8125.3125 6.47657.9375 1.66015.625 2.8789 1.41016 3.66015 2.35938.78125.94531 1.32813 2.14453 1.64063 3.58984.17578.89844.26172 2.51563.26172 4.85938v7.03125c0 4.90234.11328 8.0039.33984 9.30468C29.71094-2.4375 30.15625-1.1914 30.82031 0H25.3125c-.54688-1.09375-.89844-2.375-1.05469-3.83594zm-.4375-11.78125c-1.91406.78125-4.78906 1.44532-8.61718 1.99219-2.16797.3125-3.69922.66406-4.59766 1.05469-.89844.39062-1.58985.96484-2.08203 1.71484-.48828.7539-.73047 1.58985-.73047 2.5039 0 1.40626.53125 2.57813 1.59765 3.51563 1.0625.9375 2.6211 1.40625 4.67188 1.40625 2.03125 0 3.83594-.4414 5.42188-1.33203 1.58203-.88672 2.74218-2.10547 3.48437-3.64453.5664-1.1914.85156-2.95313.85156-5.27344zm0 0" id="f"/><path d="M3.98438-36.88281v-6.0664H9.2578v6.0664zM3.98438 0v-31.11328H9.2578V0zm0 0" id="g"/><path d="M3.83594 0v-42.94922h5.27343V0zm0 0" id="h"/></defs><use y="50" xlink:href="#a"/><use x="43.33" y="50" xlink:href="#b"/><use x="76.699" y="50" xlink:href="#c"/><use x="106.699" y="50" xlink:href="#d"/><use x="140.068" y="50" xlink:href="#e"/><use x="156.738" y="50" xlink:href="#f"/><use x="190.107" y="50" xlink:href="#g"/><use x="203.438" y="50" xlink:href="#h"/></svg>
